web/public/images/graphql.svg

<svg width="53" height="52" viewBox="0 0 53 52" fill="none" xmlns="http://www.w3.org/2000/svg">
<path d="M26.0151 11.6349L25.0617 11.5049L13.0151 32.2832C13.5351 32.7382 13.8817 33.3232 14.0334 33.9733H37.9967C38.1484 33.3232 38.4951 32.7382 39.0151 32.2832L26.9684 11.5049L26.0151 11.6349ZM14.3151 35.8149L23.5884 41.2966C24.2167 40.7116 25.0834 40.3649 26.0151 40.3649C26.9467 40.3649 27.8134 40.7116 28.4417 41.2966L37.7151 35.8149H14.3151ZM26.0151 47.6666C25.0497 47.6666 24.1238 47.2831 23.4412 46.6005C22.7586 45.9178 22.3751 44.992 22.3751 44.0266L22.5701 42.8133L13.2534 37.2882C12.5817 38.0682 11.6067 38.5449 10.5017 38.5449C9.53635 38.5449 8.6105 38.1614 7.92787 37.4788C7.24524 36.7962 6.86174 35.8703 6.86174 34.9049C6.86174 33.1933 8.01007 31.7633 9.59174 31.3516V20.2799C7.79341 20.0416 6.40674 18.5033 6.40674 16.6399C6.40674 15.6745 6.79024 14.7487 7.47287 14.066C8.1555 13.3834 9.08135 12.9999 10.0467 12.9999C11.2384 12.9999 12.2784 13.5633 12.9501 14.4299L22.5051 8.94825L22.3751 7.97325C22.3751 5.95825 24.0001 4.33325 26.0151 4.33325C28.0301 4.33325 29.6551 5.95825 29.6551 7.97325L29.5251 8.94825L39.0801 14.4299C39.7517 13.5633 40.7917 12.9999 41.9834 12.9999C42.9488 12.9999 43.8746 13.3834 44.5573 14.066C45.2399 14.7487 45.6234 15.6745 45.6234 16.6399C45.6234 18.5033 44.2367 20.0416 42.4384 20.2799V31.3516C44.0201 31.7633 45.1684 33.1933 45.1684 34.9049C45.1684 35.8703 44.7849 36.7962 44.1023 37.4788C43.4196 38.1614 42.4938 38.5449 41.5284 38.5449C40.4234 38.5449 39.4484 38.0682 38.7767 37.2882L29.4601 42.8133L29.6551 44.0266C29.6551 44.992 29.2716 45.9178 28.5889 46.6005C27.9063 47.2831 26.9805 47.6666 26.0151 47.6666ZM23.4151 10.5299L13.6651 16.1199L13.7084 16.6399C13.7084 18.1783 12.7551 19.4999 11.4117 20.0416L11.4767 31.4166L23.4151 10.5299ZM28.6151 10.5299L40.5534 31.4166L40.6184 20.0416C39.2751 19.4999 38.3217 18.1783 38.3217 16.6399L38.3651 16.1199L28.6151 10.5299Z" fill="#A86338"/>
</svg>

<svg fill="none" height="52" viewBox="0 0 53 52" width="53" xmlns="http://www.w3.org/2000/svg"><path d="m26.0151 11.6349-.9534-.13-12.0466 20.7783c.52.455.8666 1.04 1.0183 1.6901h23.9633c.1517-.6501.4984-1.2351 1.0184-1.6901l-12.0467-20.7783zm-11.7 24.18 9.2733 5.4817c.6283-.585 1.495-.9317 2.4267-.9317.9316 0 1.7983.3467 2.4266.9317l9.2734-5.4817zm11.7 11.8517c-.9654 0-1.8913-.3835-2.5739-1.0661-.6826-.6827-1.0661-1.6085-1.0661-2.5739l.195-1.2133-9.3167-5.5251c-.6717.78-1.6467 1.2567-2.7517 1.2567-.96535 0-1.8912-.3835-2.57383-1.0661s-1.06613-1.6085-1.06613-2.5739c0-1.7116 1.14833-3.1416 2.73-3.5533v-11.0717c-1.79833-.2383-3.185-1.7766-3.185-3.64 0-.9654.3835-1.8912 1.06613-2.5739.68263-.6826 1.60848-1.0661 2.57383-1.0661 1.1917 0 2.2317.5634 2.9034 1.43l9.555-5.48165-.13-.975c0-2.015 1.625-3.64 3.64-3.64s3.64 1.625 3.64 3.64l-.13.975 9.555 5.48165c.6716-.8666 1.7116-1.43 2.9033-1.43.9654 0 1.8912.3835 2.5739 1.0661.6826.6827 1.0661 1.6085 1.0661 2.5739 0 1.8634-1.3867 3.4017-3.185 3.64v11.0717c1.5817.4117 2.73 1.8417 2.73 3.5533 0 .9654-.3835 1.8913-1.0661 2.5739-.6827.6826-1.6085 1.0661-2.5739 1.0661-1.105 0-2.08-.4767-2.7517-1.2567l-9.3166 5.5251.195 1.2133c0 .9654-.3835 1.8912-1.0662 2.5739-.6826.6826-1.6084 1.0661-2.5738 1.0661zm-2.6-37.1367-9.75 5.59.0433.52c0 1.5384-.9533 2.86-2.2967 3.4017l.065 11.375zm5.2 0 11.9383 20.8867.065-11.375c-1.3433-.5417-2.2967-1.8633-2.2967-3.4017l.0434-.52z" fill="#a86338"/></svg>
